X: 064
M: 2/4
L: 1/8
K: A
cAAf | fedc | dcBA | BEEB |\
cAAf | feae | cAEG | A2 :|
|: ED |\

